Papirus/64x64/apps/accessories-ebook-reader.svg

<svg xmlns="http://www.w3.org/2000/svg" width="64" height="64" version="1.1">
 <path style="opacity:0.2" d="m 10,56 0,2 c 0,1.662 1.338,3 3,3 l 38,0 c 1.662,0 3,-1.338 3,-3 l 0,-2 c 0,1.662 -1.338,3 -3,3 l -38,0 c -1.662,0 -3,-1.338 -3,-3 z"/>
 <path style="fill:#009587" d="m 13,4 c -1.662,0 -3,1.338 -3,3 l 0,50 c 0,1.662 1.338,3 3,3 l 38,0 c 1.662,0 3,-1.338 3,-3 L 54,7 C 54,5.338 52.662,4 51,4 L 13,4 Z"/>
 <path style="opacity:0.2" d="m 13,4 c -1.662,0 -3,1.338 -3,3 l 0,50 c 0,1.662 1.338,3 3,3 l 5,0 0,-56 z"/>
 <path style="opacity:0.2" d="m 38,5 0,28 4,-4 4,4 0,-28 -8,0 z"/>
 <path style="fill:#d8d8d8" d="m 38,4 0,28 4,-4 4,4 0,-28 -8,0 z"/>
 <path style="opacity:0.2;fill:#ffffff" d="M 13 4 C 11.338 4 10 5.338 10 7 L 10 8 C 10 6.338 11.338 5 13 5 L 51 5 C 52.662 5 54 6.338 54 8 L 54 7 C 54 5.338 52.662 4 51 4 L 13 4 z"/>
</svg>

<svg xmlns="http://www.w3.org/2000/svg" width="64" height="64" version="1.1">
 <rect style="opacity:0.2" width="44" height="56" x="10" y="5" rx="3" ry="3"/>
 <rect style="fill:#009587" width="44" height="56" x="10" y="4" rx="3" ry="3"/>
 <path style="opacity:0.2" d="M 38,5 V 33 L 42,29 46,33 V 5 Z"/>
 <path style="fill:#d8d8d8" d="m 38,4 0,28 4,-4 4,4 0,-28 -8,0 z"/>
 <path style="opacity:0.2" d="M 13 4 C 11.338 4 10 5.338 10 7 L 10 57 C 10 58.662 11.338 60 13 60 L 18 60 L 18 4 L 13 4 z"/>
 <path style="opacity:0.2;fill:#ffffff" d="M 13 4 C 11.338 4 10 5.338 10 7 L 10 8 C 10 6.338 11.338 5 13 5 L 51 5 C 52.662 5 54 6.338 54 8 L 54 7 C 54 5.338 52.662 4 51 4 L 13 4 z"/>
</svg>
